X:402
T:B402-  Royal and Fair
Q:1/4=120
L:1/4
M:3/4
K:C
C3/2D/ (E/C/)|F2E|AGA|cCD|\
E2C|A2G|(GC)D|E3|\
C3/2D/ (E/D/)|F2A|ABc|dGc|\
e2c|G2E|(EC)D|F3|\
(c/d/)ec|c2G|AGA|c3|\
eAA|d3/2e/ (d/A/)|c3/2d/ (c/G/)|A2B|\
cED|F3|E2C|A2G|\
e2d|(cA)c|e2c|(d/e/f)e|\
(d/c/)Bc|(dD)F|(E/F/)GE|C3|]
